brand-assets/rolldown/rolldown-icon-color-dark.svg

<svg width="77" height="47" viewBox="0 0 77 47" fill="none" xmlns="http://www.w3.org/2000/svg">
<path d="M56.0747 0.770874C57.0334 0.770874 57.5568 1.88889 56.9429 2.62561L46.4995 15.1586C45.2716 16.632 46.3185 18.8702 48.2379 18.8702H58.3388C59.2974 18.8702 59.8209 19.9882 59.2069 20.7249L38.9987 44.9765C38.5463 45.5194 37.7126 45.5194 37.2602 44.9765L17.052 20.7249C16.4381 19.9882 16.9616 18.8702 17.9202 18.8702H28.0189C29.9361 18.8702 30.9852 16.632 29.7573 15.1586L19.3139 2.62561C18.7 1.88889 19.2234 0.770874 20.182 0.770874H56.0747Z" fill="#FF4100"/>
<mask id="mask0_2002_17410" style="mask-type:alpha" maskUnits="userSpaceOnUse" x="16" y="0" width="44" height="46">
<path d="M56.0747 0.770996C57.0334 0.770996 57.5568 1.88901 56.9429 2.62573L46.4995 15.1587C45.2716 16.6321 46.3185 18.8703 48.2379 18.8703H58.3388C59.2974 18.8703 59.8209 19.9883 59.2069 20.725L38.9987 44.9767C38.5463 45.5195 37.7126 45.5195 37.2602 44.9767L17.052 20.725C16.4381 19.9883 16.9616 18.8703 17.9202 18.8703H28.0189C29.9361 18.8703 30.9852 16.6321 29.7573 15.1587L19.3139 2.62573C18.7 1.88901 19.2234 0.770996 20.182 0.770996H56.0747Z" fill="black"/>
</mask>
<g mask="url(#mask0_2002_17410)">
<g filter="url(#filter0_f_2002_17410)">
<ellipse cx="5.39674" cy="23.5823" rx="5.39674" ry="23.5823" transform="matrix(-0.863806 -0.503824 -0.503824 0.863806 76.4214 -16.7233)" fill="#FFE6E4"/>
</g>
<g filter="url(#filter1_f_2002_17410)">
<ellipse cx="5.39674" cy="23.5823" rx="5.39674" ry="23.5823" transform="matrix(-0.863806 -0.503824 -0.503824 0.863806 75.2729 6.25366)" fill="#FFE6E4"/>
</g>
<g filter="url(#filter2_f_2002_17410)">
<ellipse cx="17.4602" cy="1.44422" rx="3.71946" ry="21.8307" transform="rotate(-36.0929 17.4602 1.44422)" fill="#FF00B3"/>
</g>
<g filter="url(#filter3_f_2002_17410)">
<ellipse cx="23.2043" cy="34.1023" rx="3.71946" ry="21.8307" transform="rotate(-36.0929 23.2043 34.1023)" fill="#FF00B3"/>
</g>
<g filter="url(#filter4_f_2002_17410)">
<ellipse cx="3.71946" cy="21.8307" rx="3.71946" ry="21.8307" transform="matrix(-0.808063 -0.589096 -0.589096 0.808063 74.6865 -14.0052)" fill="#FF00B3"/>
</g>
<g filter="url(#filter5_f_2002_17410)">
<ellipse cx="3.71946" cy="21.8307" rx="3.71946" ry="21.8307" transform="matrix(-0.808063 -0.589096 -0.589096 0.808063 67.7935 18.6528)" fill="#FF00B3"/>
</g>
<g filter="url(#filter6_f_2002_17410)">
<ellipse cx="3.71946" cy="21.8307" rx="3.71946" ry="21.8307" transform="matrix(-0.808063 -0.589096 -0.589096 0.808063 71.2402 -14.0052)" fill="#FF00B3"/>
</g>
<g filter="url(#filter7_f_2002_17410)">
<ellipse cx="3.71946" cy="21.8307" rx="3.71946" ry="21.8307" transform="matrix(-0.808063 -0.589096 -0.589096 0.808063 65.4956 18.6528)" fill="#FF00B3"/>
</g>
<g filter="url(#filter8_f_2002_17410)">
<ellipse cx="19.584" cy="3.02385" rx="5.39674" ry="23.5823" transform="rotate(-40.9103 19.584 3.02385)" fill="#E23D14"/>
</g>
<g filter="url(#filter9_f_2002_17410)">
<ellipse cx="23.2554" cy="28.5009" rx="5.39674" ry="23.5823" transform="rotate(-35.8882 23.2554 28.5009)" fill="#E23D14"/>
</g>
</g>
<path d="M6.91893 0C-2.27936 13.1663 -2.33322 33.5748 6.91893 46.7885H13.1337C3.88368 33.5748 3.93753 13.1663 13.1337 0H6.91893Z" fill="#08060E"/>
<path d="M69.3403 0H63.1255C72.3238 13.1663 72.3776 33.5748 63.1255 46.7885H69.3403C78.5903 33.5748 78.5364 13.1663 69.3403 0Z" fill="#08060E"/>
<defs>
<filter id="filter0_f_2002_17410" x="40.2185" y="-26.5187" width="39.3199" height="54.8938" filterUnits="userSpaceOnUse" color-interpolation-filters="sRGB">
<feFlood flood-opacity="0" result="BackgroundImageFix"/>
<feBlend mode="normal" in="SourceGraphic" in2="BackgroundImageFix" result="shape"/>
<feGaussianBlur stdDeviation="3.44667" result="effect1_foregroundBlur_2002_17410"/>
</filter>
<filter id="filter1_f_2002_17410" x="39.07" y="-3.54177" width="39.3199" height="54.8938" filterUnits="userSpaceOnUse" color-interpolation-filters="sRGB">
<feFlood flood-opacity="0" result="BackgroundImageFix"/>
<feBlend mode="normal" in="SourceGraphic" in2="BackgroundImageFix" result="shape"/>
<feGaussianBlur stdDeviation="3.44667" result="effect1_foregroundBlur_2002_17410"/>
</filter>
<filter id="filter2_f_2002_17410" x="-2.64285" y="-23.2271" width="40.2061" height="49.3426" filterUnits="userSpaceOnUse" color-interpolation-filters="sRGB">
<feFlood flood-opacity="0" result="BackgroundImageFix"/>
<feBlend mode="normal" in="SourceGraphic" in2="BackgroundImageFix" result="shape"/>
<feGaussianBlur stdDeviation="3.44667" result="effect1_foregroundBlur_2002_17410"/>
</filter>
<filter id="filter3_f_2002_17410" x="3.10129" y="9.43101" width="40.2061" height="49.3426" filterUnits="userSpaceOnUse" color-interpolation-filters="sRGB">
<feFlood flood-opacity="0" result="BackgroundImageFix"/>
<feBlend mode="normal" in="SourceGraphic" in2="BackgroundImageFix" result="shape"/>
<feGaussianBlur stdDeviation="3.44667" result="effect1_foregroundBlur_2002_17410"/>
</filter>
<filter id="filter4_f_2002_17410" x="38.7175" y="-23.2271" width="40.2061" height="49.3426" filterUnits="userSpaceOnUse" color-interpolation-filters="sRGB">
<feFlood flood-opacity="0" result="BackgroundImageFix"/>
<feBlend mode="normal" in="SourceGraphic" in2="BackgroundImageFix" result="shape"/>
<feGaussianBlur stdDeviation="3.44667" result="effect1_foregroundBlur_2002_17410"/>
</filter>
<filter id="filter5_f_2002_17410" x="31.8244" y="9.43101" width="40.2061" height="49.3426" filterUnits="userSpaceOnUse" color-interpolation-filters="sRGB">
<feFlood flood-opacity="0" result="BackgroundImageFix"/>
<feBlend mode="normal" in="SourceGraphic" in2="BackgroundImageFix" result="shape"/>
<feGaussianBlur stdDeviation="3.44667" result="effect1_foregroundBlur_2002_17410"/>
</filter>
<filter id="filter6_f_2002_17410" x="35.2712" y="-23.2271" width="40.2061" height="49.3426" filterUnits="userSpaceOnUse" color-interpolation-filters="sRGB">
<feFlood flood-opacity="0" result="BackgroundImageFix"/>
<feBlend mode="normal" in="SourceGraphic" in2="BackgroundImageFix" result="shape"/>
<feGaussianBlur stdDeviation="3.44667" result="effect1_foregroundBlur_2002_17410"/>
</filter>
<filter id="filter7_f_2002_17410" x="29.5266" y="9.43101" width="40.2061" height="49.3426" filterUnits="userSpaceOnUse" color-interpolation-filters="sRGB">
<feFlood flood-opacity="0" result="BackgroundImageFix"/>
<feBlend mode="normal" in="SourceGraphic" in2="BackgroundImageFix" result="shape"/>
<feGaussianBlur stdDeviation="3.44667" result="effect1_foregroundBlur_2002_17410"/>
</filter>
<filter id="filter8_f_2002_17410" x="-3.2864" y="-22.042" width="45.7408" height="50.1316" filterUnits="userSpaceOnUse" color-interpolation-filters="sRGB">
<feFlood flood-opacity="0" result="BackgroundImageFix"/>
<feBlend mode="normal" in="SourceGraphic" in2="BackgroundImageFix" result="shape"/>
<feGaussianBlur stdDeviation="3.44667" result="effect1_foregroundBlur_2002_17410"/>
</filter>
<filter id="filter9_f_2002_17410" x="1.85911" y="2.23887" width="42.7925" height="52.524" filterUnits="userSpaceOnUse" color-interpolation-filters="sRGB">
<feFlood flood-opacity="0" result="BackgroundImageFix"/>
<feBlend mode="normal" in="SourceGraphic" in2="BackgroundImageFix" result="shape"/>
<feGaussianBlur stdDeviation="3.44667" result="effect1_foregroundBlur_2002_17410"/>
</filter>
</defs>
</svg>

<svg xmlns="http://www.w3.org/2000/svg" width="77" height="47" fill="none" viewBox="0 0 77 47"><path fill="#ff4100" d="M56.075.77c.958 0 1.482 1.119.868 1.856L46.5 15.159c-1.228 1.473-.181 3.711 1.738 3.711h10.1c.96 0 1.483 1.118.869 1.855L38.999 44.977a1.13 1.13 0 0 1-1.739 0L17.052 20.725c-.614-.737-.09-1.855.868-1.855h10.1c1.917 0 2.966-2.238 1.738-3.711L19.314 2.626c-.614-.737-.09-1.855.868-1.855z"/><mask id="a" width="44" height="46" x="16" y="0" maskUnits="userSpaceOnUse" style="mask-type:alpha"><path fill="#000" d="M56.075.771c.958 0 1.482 1.118.868 1.855L46.5 15.159c-1.228 1.473-.181 3.711 1.738 3.711h10.1c.96 0 1.483 1.118.869 1.855L38.999 44.977a1.132 1.132 0 0 1-1.739 0L17.052 20.725c-.614-.737-.09-1.855.868-1.855h10.1c1.917 0 2.966-2.238 1.738-3.711L19.314 2.626c-.614-.737-.09-1.855.868-1.855z"/></mask><g mask="url(#a)"><g filter="url(#b)"><ellipse cx="5.397" cy="23.582" fill="#ffe6e4" rx="5.397" ry="23.582" transform="rotate(-149.747 35.95 -18.69)scale(1 -1)"/></g><g filter="url(#c)"><ellipse cx="5.397" cy="23.582" fill="#ffe6e4" rx="5.397" ry="23.582" transform="rotate(30.253 26.07 142.356)scale(-1 1)"/></g><g filter="url(#d)"><ellipse cx="17.46" cy="1.444" fill="#ff00b3" rx="3.719" ry="21.831" transform="rotate(-36.093 17.46 1.444)"/></g><g filter="url(#e)"><ellipse cx="23.204" cy="34.102" fill="#ff00b3" rx="3.719" ry="21.831" transform="rotate(-36.093 23.204 34.102)"/></g><g filter="url(#f)"><ellipse cx="3.719" cy="21.831" fill="#ff00b3" rx="3.719" ry="21.831" transform="rotate(36.093 58.836 107.612)scale(-1 1)"/></g><g filter="url(#g)"><ellipse cx="3.719" cy="21.831" fill="#ff00b3" rx="3.719" ry="21.831" transform="rotate(36.093 5.272 113.363)scale(-1 1)"/></g><g filter="url(#h)"><ellipse cx="3.719" cy="21.831" fill="#ff00b3" rx="3.719" ry="21.831" transform="rotate(36.093 57.113 102.323)scale(-1 1)"/></g><g filter="url(#i)"><ellipse cx="3.719" cy="21.831" fill="#ff00b3" rx="3.719" ry="21.831" transform="rotate(36.093 4.123 109.836)scale(-1 1)"/></g><g filter="url(#j)"><ellipse cx="19.584" cy="3.024" fill="#e23d14" rx="5.397" ry="23.582" transform="rotate(-40.91 19.584 3.024)"/></g><g filter="url(#k)"><ellipse cx="23.255" cy="28.501" fill="#e23d14" rx="5.397" ry="23.582" transform="rotate(-35.888 23.255 28.5)"/></g></g><path fill="#08060e" d="M6.919 0c-9.198 13.166-9.252 33.575 0 46.789h6.215c-9.25-13.214-9.196-33.623 0-46.789zM69.34 0h-6.215c9.199 13.166 9.253 33.575 0 46.789h6.215c9.25-13.214 9.196-33.623 0-46.789"/><defs><filter id="b" width="39.32" height="54.894" x="40.218" y="-26.519" color-interpolation-filters="sRGB" filterUnits="userSpaceOnUse"><feFlood flood-opacity="0" result="BackgroundImageFix"/><feBlend in="SourceGraphic" in2="BackgroundImageFix" result="shape"/><feGaussianBlur result="effect1_foregroundBlur_2002_17410" stdDeviation="3.447"/></filter><filter id="c" width="39.32" height="54.894" x="39.07" y="-3.542" color-interpolation-filters="sRGB" filterUnits="userSpaceOnUse"><feFlood flood-opacity="0" result="BackgroundImageFix"/><feBlend in="SourceGraphic" in2="BackgroundImageFix" result="shape"/><feGaussianBlur result="effect1_foregroundBlur_2002_17410" stdDeviation="3.447"/></filter><filter id="d" width="40.206" height="49.343" x="-2.643" y="-23.227" color-interpolation-filters="sRGB" filterUnits="userSpaceOnUse"><feFlood flood-opacity="0" result="BackgroundImageFix"/><feBlend in="SourceGraphic" in2="BackgroundImageFix" result="shape"/><feGaussianBlur result="effect1_foregroundBlur_2002_17410" stdDeviation="3.447"/></filter><filter id="e" width="40.206" height="49.343" x="3.101" y="9.431" color-interpolation-filters="sRGB" filterUnits="userSpaceOnUse"><feFlood flood-opacity="0" result="BackgroundImageFix"/><feBlend in="SourceGraphic" in2="BackgroundImageFix" result="shape"/><feGaussianBlur result="effect1_foregroundBlur_2002_17410" stdDeviation="3.447"/></filter><filter id="f" width="40.206" height="49.343" x="38.718" y="-23.227" color-interpolation-filters="sRGB" filterUnits="userSpaceOnUse"><feFlood flood-opacity="0" result="BackgroundImageFix"/><feBlend in="SourceGraphic" in2="BackgroundImageFix" result="shape"/><feGaussianBlur result="effect1_foregroundBlur_2002_17410" stdDeviation="3.447"/></filter><filter id="g" width="40.206" height="49.343" x="31.824" y="9.431" color-interpolation-filters="sRGB" filterUnits="userSpaceOnUse"><feFlood flood-opacity="0" result="BackgroundImageFix"/><feBlend in="SourceGraphic" in2="BackgroundImageFix" result="shape"/><feGaussianBlur result="effect1_foregroundBlur_2002_17410" stdDeviation="3.447"/></filter><filter id="h" width="40.206" height="49.343" x="35.271" y="-23.227" color-interpolation-filters="sRGB" filterUnits="userSpaceOnUse"><feFlood flood-opacity="0" result="BackgroundImageFix"/><feBlend in="SourceGraphic" in2="BackgroundImageFix" result="shape"/><feGaussianBlur result="effect1_foregroundBlur_2002_17410" stdDeviation="3.447"/></filter><filter id="i" width="40.206" height="49.343" x="29.527" y="9.431" color-interpolation-filters="sRGB" filterUnits="userSpaceOnUse"><feFlood flood-opacity="0" result="BackgroundImageFix"/><feBlend in="SourceGraphic" in2="BackgroundImageFix" result="shape"/><feGaussianBlur result="effect1_foregroundBlur_2002_17410" stdDeviation="3.447"/></filter><filter id="j" width="45.741" height="50.132" x="-3.286" y="-22.042" color-interpolation-filters="sRGB" filterUnits="userSpaceOnUse"><feFlood flood-opacity="0" result="BackgroundImageFix"/><feBlend in="SourceGraphic" in2="BackgroundImageFix" result="shape"/><feGaussianBlur result="effect1_foregroundBlur_2002_17410" stdDeviation="3.447"/></filter><filter id="k" width="42.792" height="52.524" x="1.859" y="2.239" color-interpolation-filters="sRGB" filterUnits="userSpaceOnUse"><feFlood flood-opacity="0" result="BackgroundImageFix"/><feBlend in="SourceGraphic" in2="BackgroundImageFix" result="shape"/><feGaussianBlur result="effect1_foregroundBlur_2002_17410" stdDeviation="3.447"/></filter></defs></svg>
